X:4851
T:Only for Barney
O:england
R:Jig
C:Josephine Keegan
S:Brid Harper
M:6/8
L:1/8
K:G
GBd ~g3|afd cBA|~G3 Bcd|ecA fef|
gBd ~g3|afd cde|dBG cAF|1 (4GABA GBA:|2 (4GABA GBd||
~g3 GBd|gbg (4fgaf|gdB afd|cAF DBd|
~g3 GBd|ece agf|gBB (4ABcA|BGF GBd:|
eBB gBB|eBB (4GABG|ABA Aag|fdd cBA|
(4BcdB eBB|GBB FAA|BgB (4ABcA|1 BGF GBd:|2 BGF GBA:|


